X:1
T:Title
%%score { ( 1 3 ) | ( 2 4 5 ) }
L:1/8
M:6/8
K:Bb
V:1 treble nm="Grand Piano"
V:3 treble 
V:2 bass 
V:4 bass 
V:5 bass 
V:1
 z3[Q:1/4=84] EFG | [EG]-[E-G-c][EG-B] [G-e][G-d][Gc] | .[B,GB]3 FGF | E2 F E3- |[M:9/16] E4- E/ | %5
[M:3/8] BAG |[M:3/4] d3 d3 | [DFd]D EF GA | B2 A B3- |[M:3/8] B3 | z3 | %11
[M:3/4] [EG]-[E-G-c] [EG-B][G-e] [G-d][Gc] | .[B,GB]2 z2 z2 | z6 |[M:9/16] z9/2 |[M:3/8] eee | %16
[M:3/4] e6- | e4 z2 | z2 z D3 |[M:15/16] G3/2- G3 ee/-e/e |[M:3/4] e2 c_A FA | e2 BG E[B,EG] | %22
 B3 F z2[Q:1/4=83][Q:1/4=82][Q:1/4=80][Q:1/4=79][Q:1/4=78][Q:1/4=77][Q:1/4=75][Q:1/4=74][Q:1/4=73][Q:1/4=72][Q:1/4=70][Q:1/4=69][Q:1/4=68][Q:1/4=67][Q:1/4=65][Q:1/4=64] | %23
[M:9/16] [G,B,E]4- [G,B,E]/ |] %24
V:2
 z3 G,B,E | E,3 [E,B,]3 | E,[K:treble]cB B,EB, | G,2 B, G,3- |[M:9/16] G,4- G,/ | %5
[M:3/8][K:treble] DFE |[M:3/4][K:bass] B,-[B,-E] [B,D]B,- [_A,B,]B, | [B,,B,]B, B,[K:treble]D EE | %8
 D2 E D3- |[M:3/8] D3 | EFG |[M:3/4][K:bass] E,3 [E,B,]3 | E,[K:treble]c BF GF | E2 F E3- | %14
[M:9/16] E4- E/ |[M:3/8] EEE |[M:3/4] E6- | E4[K:bass] z2 | B,6- |[M:15/16] B,3/2- B,3 z3 | %20
[M:3/4] [E,CE]2 [E,_A,E] [E,A,E]2 [E,A,E] | z2 z E z2 | B,,2 .B,,2 DB,, |[M:9/16] E,4- E,/ |] %24
V:3
 x6 | .B3 z3 | x6 | x6 |[M:9/16] x9/2 |[M:3/8] x3 |[M:3/4] [DF]G .F2 CD | x6 | x6 |[M:3/8] x3 | %10
 x3 |[M:3/4] .B2 z2 z2 | x6 | x6 |[M:9/16] x9/2 |[M:3/8] x3 |[M:3/4] z2 z c3 | G3 B BB | B6- | %19
[M:15/16] B3/2- B3 z3 |[M:3/4] x6 | x6 | [B,D]2 [_A,_A] [B,B-]2 [A,B,B] |[M:9/16] x9/2 |] %24
V:4
 x6 | x6 | x[K:treble] x5 | x6 |[M:9/16] x9/2 |[M:3/8][K:treble] x3 |[M:3/4][K:bass] z2 z F,3 | %7
 x3[K:treble] x3 | x6 |[M:3/8] x3 | x3 |[M:3/4][K:bass] x6 | x[K:treble] x5 | x6 |[M:9/16] x9/2 | %15
[M:3/8] x3 |[M:3/4] z2 z C3 | G,3[K:bass] B, B,B, | z2 z D,3 | %19
[M:15/16] G,3/2- G,3 [E,E][E,E]/-[E,E]/[E,E] |[M:3/4] x6 | [E,G,E]2 [E,G,E] [E,B,]2 E, | %22
 z2 z .B,,3 |[M:9/16] x9/2 |] %24
V:5
 x6 | x6 | x[K:treble] x5 | x6 |[M:9/16] x9/2 |[M:3/8][K:treble] x3 |[M:3/4][K:bass] B,,6 | %7
 x3[K:treble] x3 | x6 |[M:3/8] x3 | x3 |[M:3/4][K:bass] x6 | x[K:treble] x5 | x6 |[M:9/16] x9/2 | %15
[M:3/8] x3 |[M:3/4] x6 | x3[K:bass] x3 | x6 |[M:15/16] x15/2 |[M:3/4] x6 | x6 | x6 | %23
[M:9/16] x9/2 |] %24

